symbols/web/scatter_plot/materialsymbolsoutlined/scatter_plot_wght500grad200_20px.svg

<svg xmlns="http://www.w3.org/2000/svg" height="20" width="20"><path d="M5.417 16.729q-1.688 0-2.865-1.167-1.177-1.166-1.177-2.874 0-1.688 1.177-2.855 1.177-1.166 2.865-1.166 1.708 0 2.875 1.166Q9.458 11 9.458 12.688q0 1.708-1.166 2.874-1.167 1.167-2.875 1.167Zm0-2.437q.666 0 1.135-.469t.469-1.135q0-.646-.469-1.115t-1.135-.469q-.667 0-1.136.469-.469.469-.469 1.115 0 .666.469 1.135t1.136.469Zm4.125-8.063q.666 0 1.125-.458.458-.459.458-1.125 0-.646-.458-1.115-.459-.469-1.105-.469-.666 0-1.135.459-.469.458-.469 1.125 0 .666.459 1.125.458.458 1.125.458Zm0 2.438q-1.688 0-2.854-1.157-1.167-1.156-1.167-2.864 0-1.688 1.167-2.854Q7.854.625 9.542.625q1.708 0 2.875 1.167 1.166 1.166 1.166 2.854 0 1.708-1.166 2.864-1.167 1.157-2.875 1.157Zm5.041 7.5q.667 0 1.136-.469.469-.469.469-1.136 0-.666-.469-1.124-.469-.459-1.136-.459-.666 0-1.135.459-.469.458-.469 1.124 0 .667.469 1.136.469.469 1.135.469Zm0 2.437q-1.708 0-2.875-1.177-1.166-1.177-1.166-2.865 0-1.687 1.166-2.864 1.167-1.177 2.875-1.177 1.688 0 2.865 1.177 1.177 1.177 1.177 2.864 0 1.688-1.177 2.865-1.177 1.177-2.865 1.177ZM9.542 4.646Zm-4.125 8.042Zm9.166 1.874Z"/></svg>

<svg xmlns="http://www.w3.org/2000/svg" height="20" width="20"><path d="M5.417 16.729Q3.729 16.729 2.552 15.562Q1.375 14.396 1.375 12.688Q1.375 11 2.552 9.833Q3.729 8.667 5.417 8.667Q7.125 8.667 8.292 9.833Q9.458 11 9.458 12.688Q9.458 14.396 8.292 15.562Q7.125 16.729 5.417 16.729ZM5.417 14.292Q6.083 14.292 6.552 13.823Q7.021 13.354 7.021 12.688Q7.021 12.042 6.552 11.573Q6.083 11.104 5.417 11.104Q4.75 11.104 4.281 11.573Q3.812 12.042 3.812 12.688Q3.812 13.354 4.281 13.823Q4.75 14.292 5.417 14.292ZM9.542 6.229Q10.208 6.229 10.667 5.771Q11.125 5.312 11.125 4.646Q11.125 4 10.667 3.531Q10.208 3.062 9.562 3.062Q8.896 3.062 8.427 3.521Q7.958 3.979 7.958 4.646Q7.958 5.312 8.417 5.771Q8.875 6.229 9.542 6.229ZM9.542 8.667Q7.854 8.667 6.688 7.51Q5.521 6.354 5.521 4.646Q5.521 2.958 6.688 1.792Q7.854 0.625 9.542 0.625Q11.25 0.625 12.417 1.792Q13.583 2.958 13.583 4.646Q13.583 6.354 12.417 7.51Q11.25 8.667 9.542 8.667ZM14.583 16.167Q15.25 16.167 15.719 15.698Q16.188 15.229 16.188 14.562Q16.188 13.896 15.719 13.438Q15.25 12.979 14.583 12.979Q13.917 12.979 13.448 13.438Q12.979 13.896 12.979 14.562Q12.979 15.229 13.448 15.698Q13.917 16.167 14.583 16.167ZM14.583 18.604Q12.875 18.604 11.708 17.427Q10.542 16.25 10.542 14.562Q10.542 12.875 11.708 11.698Q12.875 10.521 14.583 10.521Q16.271 10.521 17.448 11.698Q18.625 12.875 18.625 14.562Q18.625 16.25 17.448 17.427Q16.271 18.604 14.583 18.604ZM9.542 4.646Q9.542 4.646 9.542 4.646Q9.542 4.646 9.542 4.646Q9.542 4.646 9.542 4.646Q9.542 4.646 9.542 4.646Q9.542 4.646 9.542 4.646Q9.542 4.646 9.542 4.646Q9.542 4.646 9.542 4.646Q9.542 4.646 9.542 4.646ZM5.417 12.688Q5.417 12.688 5.417 12.688Q5.417 12.688 5.417 12.688Q5.417 12.688 5.417 12.688Q5.417 12.688 5.417 12.688Q5.417 12.688 5.417 12.688Q5.417 12.688 5.417 12.688Q5.417 12.688 5.417 12.688Q5.417 12.688 5.417 12.688ZM14.583 14.562Q14.583 14.562 14.583 14.562Q14.583 14.562 14.583 14.562Q14.583 14.562 14.583 14.562Q14.583 14.562 14.583 14.562Q14.583 14.562 14.583 14.562Q14.583 14.562 14.583 14.562Q14.583 14.562 14.583 14.562Q14.583 14.562 14.583 14.562Z"/></svg>
